X: 10414
T: Donald McLennan's Exercise
R: slip jig
M: 9/8
K: Edorian
"Bm"Bff "D"f/g/4f/4ef"Bm"fBB|"D"dff"A"^cee "A"ecA|
"Bm"Bff "D"f/g/4f/4ef"Bm"fBB|"Em"gee"D"fdd "A"e^cA:|
"D"dff "D"afa"D"aff|"D"dff"D"afd "A"^cee|
"D"dff "D"a2f"D"aff|"Em"gfe"D"fed "A"^cee:|
"D"dag "D"fag"Bm"fB^c|"D"dag"D"fdf "A"eA^c|
"D"dag "D"fag"Bm"fB^c|"D"dad"F#m"^caf "A"eA^c:|
"D"dfe "A"efe"Bm"fB^c|"D"dfd"F#m"^caf "A"eA^c|
"D"dfe "A"efe"Bm"fB^c|"D"dad"F#m"^caf "A"eA^c:|
"D"dfa "D"fda"D"f/g/4f/4ef|"D"dfa"D"fda "D"f2e|
"D"dfa "D"fda"D"f/g/4f/4ef|"Em"geg"D"fdf "A"e/f/e2:|
"D"dfd "A"ede"D"~f3|"D"dfd"D"edf "A"e3|
"D"dfd "A"ede"D"fef|"Em"geg"D"fdf "A"e/f/e2:|

